assets/icons/24px/stroke/star-24px.svg

<svg width="24" height="24" viewBox="0 0 24 24" fill="none" xmlns="http://www.w3.org/2000/svg">
<path fill-rule="evenodd" clip-rule="evenodd" d="M11.045 2.53457C11.2652 2.31391 11.5881 2.1272 12 2.1272C12.4119 2.1272 12.7348 2.31391 12.955 2.53457C13.1504 2.73031 13.2796 2.96476 13.3694 3.15463C13.541 3.51754 13.7047 4.02454 13.8829 4.57668C13.8897 4.59763 13.8965 4.61865 13.9033 4.63973L15.228 8.74202L18.9773 8.74201C19.5561 8.74194 20.0879 8.74187 20.4853 8.79365C20.6934 8.82074 20.956 8.87171 21.2021 8.99743C21.4796 9.13916 21.756 9.38881 21.8826 9.78003C22.0093 10.1712 21.9316 10.5355 21.7898 10.813C21.6641 11.0591 21.4812 11.2543 21.3285 11.3981C21.0368 11.673 20.6058 11.9846 20.1368 12.3238L16.9251 14.6467L18.2825 18.848C18.4587 19.3931 18.621 19.8951 18.6932 20.2868C18.7311 20.492 18.763 20.7565 18.7189 21.0287C18.6692 21.3355 18.517 21.673 18.1868 21.9131C17.8566 22.1533 17.4887 22.1941 17.1815 22.1468C16.9089 22.1049 16.6671 21.9931 16.4835 21.8938C16.1332 21.7044 15.7056 21.3954 15.2413 21.0598L12 18.7177L8.81238 21.021C8.79444 21.034 8.77655 21.0469 8.75872 21.0598C8.29446 21.3954 7.86687 21.7044 7.51655 21.8938C7.33295 21.9931 7.09112 22.1049 6.81859 22.1468C6.5114 22.1941 6.14349 22.1533 5.81327 21.9131C5.48305 21.673 5.3309 21.3355 5.28117 21.0287C5.23705 20.7565 5.26896 20.492 5.30682 20.2868C5.37907 19.8951 5.54134 19.3931 5.71753 18.848L7.07497 14.6467L3.91693 12.3626C3.89899 12.3496 3.8811 12.3367 3.86326 12.3238C3.39423 11.9846 2.96329 11.673 2.67156 11.3981C2.51888 11.2543 2.33599 11.0591 2.21022 10.813C2.06846 10.5355 1.99079 10.1712 2.11744 9.78003C2.24409 9.38881 2.5205 9.13916 2.79797 8.99743C3.0441 8.87171 3.30669 8.82074 3.51471 8.79365C3.9122 8.74187 4.44398 8.74194 5.02278 8.74201C5.04479 8.74201 5.06687 8.74202 5.08902 8.74202L8.7721 8.74202L10.0968 4.63973C10.1036 4.61866 10.1104 4.59766 10.1171 4.57672C10.2954 4.02457 10.459 3.51755 10.6306 3.15463C10.7204 2.96476 10.8497 2.73031 11.045 2.53457ZM13.3247 9.3566L12 5.25431L10.6753 9.3566C10.6723 9.36604 10.6692 9.37567 10.666 9.38547C10.6207 9.52616 10.5641 9.70163 10.4962 9.85104C10.4129 10.0344 10.2749 10.2683 10.0188 10.4547C9.76278 10.6411 9.49775 10.7005 9.29765 10.7235C9.13459 10.7422 8.95022 10.7421 8.80241 10.742C8.79212 10.742 8.78201 10.742 8.7721 10.742H5.08902L8.24706 13.0261C8.25508 13.0319 8.26327 13.0378 8.27161 13.0438C8.39128 13.1303 8.54056 13.2381 8.66158 13.3487C8.81011 13.4844 8.98987 13.6876 9.0882 13.9883C9.18653 14.289 9.16155 14.5591 9.12192 14.7564C9.08963 14.9171 9.0329 15.0923 8.98743 15.2327C8.98426 15.2425 8.98115 15.2521 8.9781 15.2616L7.64101 19.3999L10.8287 17.0966C10.8366 17.0908 10.8448 17.085 10.8531 17.079C10.972 16.9929 11.1204 16.8855 11.2627 16.8056C11.4373 16.7075 11.6853 16.6008 12 16.6008C12.3148 16.6008 12.5627 16.7075 12.7373 16.8056C12.8796 16.8855 13.0281 16.9929 13.147 17.079C13.1553 17.085 13.1634 17.0908 13.1714 17.0966L16.359 19.3999L15.022 15.2616C15.0189 15.2521 15.0158 15.2425 15.0126 15.2327C14.9672 15.0923 14.9104 14.9171 14.8781 14.7564C14.8385 14.5591 14.8135 14.289 14.9119 13.9883C15.0102 13.6876 15.1899 13.4844 15.3385 13.3487C15.4595 13.2381 15.6088 13.1303 15.7285 13.0438C15.7368 13.0378 15.745 13.0319 15.753 13.0261L18.911 10.742H15.228C15.218 10.742 15.2079 10.742 15.1976 10.742C15.0498 10.7421 14.8655 10.7422 14.7024 10.7235C14.5023 10.7005 14.2373 10.6411 13.9812 10.4547C13.7252 10.2683 13.5872 10.0344 13.5038 9.85104C13.4359 9.70162 13.3794 9.52613 13.334 9.38544C13.3309 9.37565 13.3278 9.36603 13.3247 9.3566Z" fill="white"/>
</svg>

<svg width="24" height="24" fill="none" xmlns="http://www.w3.org/2000/svg"><path fill-rule="evenodd" clip-rule="evenodd" d="M11.045 2.535c.22-.221.543-.408.955-.408.412 0 .735.187.955.408a2.2 2.2 0 0 1 .414.62c.172.363.336.87.514 1.422l.02.063 1.325 4.102h3.75c.578 0 1.11 0 1.507.052.208.027.471.078.717.203.278.142.554.392.68.783.127.391.05.756-.092 1.033a2.196 2.196 0 0 1-.462.585c-.291.275-.722.587-1.191.926l-3.212 2.323 1.357 4.201c.177.545.339 1.047.411 1.439.038.205.07.47.026.742a1.34 1.34 0 0 1-.532.884c-.33.24-.698.281-1.006.234a2.187 2.187 0 0 1-.698-.253c-.35-.19-.777-.499-1.242-.834L12 18.718 8.812 21.02l-.053.039c-.465.335-.892.644-1.242.834-.184.1-.426.21-.698.253a1.339 1.339 0 0 1-1.006-.234 1.34 1.34 0 0 1-.532-.884 2.187 2.187 0 0 1 .026-.742c.072-.392.234-.894.41-1.439l1.358-4.201-3.158-2.284-.054-.04c-.469-.338-.9-.65-1.191-.925a2.198 2.198 0 0 1-.462-.585 1.34 1.34 0 0 1-.093-1.033c.127-.391.404-.64.681-.783.246-.125.509-.176.717-.203.397-.052.929-.052 1.508-.052H8.772l1.325-4.102.02-.063c.178-.552.342-1.06.514-1.422.09-.19.219-.425.414-.62zm2.28 6.822L12 5.254l-1.325 4.103-.009.028c-.045.141-.102.317-.17.466a1.486 1.486 0 0 1-.477.604 1.487 1.487 0 0 1-.721.268 4.495 4.495 0 0 1-.496.019H5.09l3.158 2.284.025.018c.12.086.269.194.39.305.148.135.328.339.426.64.099.3.074.57.034.767-.032.161-.09.336-.135.477l-.009.029L7.641 19.4l3.188-2.303.024-.018c.119-.086.267-.194.41-.273.174-.099.422-.205.737-.205s.563.107.737.205c.143.08.291.187.41.273l.024.018L16.36 19.4l-1.337-4.138-.01-.03c-.045-.14-.102-.315-.134-.476a1.487 1.487 0 0 1 .034-.768c.098-.3.278-.504.426-.64.122-.11.27-.218.39-.304l.025-.018 3.158-2.284H15.198c-.148 0-.332 0-.496-.019a1.487 1.487 0 0 1-.72-.268 1.488 1.488 0 0 1-.478-.604c-.068-.15-.125-.325-.17-.466a2.77 2.77 0 0 0-.01-.028z" fill="#fff"/></svg>
